X: 131
T:Hullichan Jig
% Nottingham Music Database
S:EF
Y:AB
M:6/8
K:G
P:A
d|"G"GAG BGB|"G"ded dBG|"C"cBc ege|"G"dBG "D7"A2d|
"G"GAG BGB|"G"ded Bdg|"C"fed "D7"cBA|"G"GBd g2:|
P:B
B/2c/2|"G"ded Bcd|"C"ece e2e|"D7"fgf def|"G"gBd "C"gfe|
"G"ded Bcd|"C"ece gfe|"G"ded "D7"cBA|"G"GBd g2:|


